X: 4
T: The Dawn
R: reel
M: 4/4
L: 1/8
K: Amaj
A,2CE D2FA | E2GB A2ce | (3ddd)df ecAc| (3BBB)AB cAFD|A,2CE D2FA | E2GB A2ce | (3ddd)df ecAc| (3BBB)AB cAAB :|c2 ec fcec | AAcA BAFA | EFAB cAce | fefg afed |c2 ec fcec | AAcA BAFA | EFAB cAce | fefg a4 :|


Tune 167	Setting 167

